source/img/heart.svg

<svg width="30" height="25" viewBox="0 0 30 25" fill="none" xmlns="http://www.w3.org/2000/svg">
<path d="M8.99996 0.75C4.3652 0.75 0.416626 4.2155 0.416626 8.71633C0.416626 11.8212 1.87054 14.4353 3.79744 16.6007C5.71773 18.7587 8.1952 20.57 10.4349 22.0861L14.2993 24.7018C14.7225 24.9883 15.2774 24.9883 15.7006 24.7018L19.565 22.0861C21.8047 20.57 24.2822 18.7587 26.2025 16.6007C28.1294 14.4353 29.5833 11.8212 29.5833 8.71633C29.5833 4.2155 25.6347 0.75 21 0.75C18.6108 0.75 16.5086 1.87023 15 3.31972C13.4914 1.87023 11.3891 0.75 8.99996 0.75Z" fill="#CECFDB"/>
</svg>

<svg width="30" height="25" fill="none" xmlns="http://www.w3.org/2000/svg"><path d="M9 .75C4.365.75.417 4.215.417 8.716c0 3.105 1.454 5.72 3.38 7.885 1.92 2.158 4.398 3.969 6.638 5.485l3.864 2.616a1.25 1.25 0 0 0 1.402 0l3.864-2.616c2.24-1.516 4.717-3.327 6.637-5.485 1.927-2.166 3.381-4.78 3.381-7.885 0-4.5-3.948-7.966-8.583-7.966-2.39 0-4.491 1.12-6 2.57C13.491 1.87 11.39.75 9 .75Z" fill="#CECFDB"/></svg>
